artwork/resources/intui/icons/shell/filetree/android-module.svg

<svg width="16" height="16" viewBox="0 0 16 16" fill="none" xmlns="http://www.w3.org/2000/svg">
<rect x="9.5" y="9.5" width="6" height="6" rx="1.5" fill="#F2FCF7" stroke="#3DDC84"/>
<path fill-rule="evenodd" clip-rule="evenodd" d="M1 3.86667C1 2.83574 1.7835 2 2.75 2H6.03823C6.29871 2 6.5489 2.10163 6.73559 2.28327L8.5 4L13 4C14.1046 4 15 4.89543 15 6V8.17071C14.6872 8.06015 14.3506 8 14 8H11C9.34315 8 8 9.34315 8 11V14H2.75C1.7835 14 1 13.1643 1 12.1333V3.86667Z" fill="#EBECF0"/>
<path fill-rule="evenodd" clip-rule="evenodd" d="M7.80265 4.71673L8.09379 5H8.5H13C13.5523 5 14 5.44772 14 6V8C14.3506 8 14.6872 8.06015 15 8.17071V6C15 4.89543 14.1046 4 13 4L8.5 4L6.73559 2.28327C6.5489 2.10163 6.29871 2 6.03823 2H2.75C1.7835 2 1 2.83574 1 3.86667V12.1333C1 13.1643 1.7835 14 2.75 14H8V13H2.75C2.3956 13 2 12.6738 2 12.1333V3.86667C2 3.32624 2.3956 3 2.75 3H6.03823L7.80265 4.71673Z" fill="#6C707E"/>
</svg>

<svg width="16" height="16" viewBox="0 0 16 16" fill="none" xmlns="http://www.w3.org/2000/svg"><rect x="9.5" y="9.5" width="6" height="6" rx="1.5" fill="#F2FCF7" stroke="#3DDC84"/><path fill-rule="evenodd" clip-rule="evenodd" d="M1 3.867C1 2.836 1.784 2 2.75 2h3.288a1 1 0 0 1 .698.283L8.5 4H13a2 2 0 0 1 2 2v2.17c-.313-.11-.65-.17-1-.17h-3a3 3 0 0 0-3 3v3H2.75C1.784 14 1 13.164 1 12.133V3.867z" fill="#EBECF0"/><path fill-rule="evenodd" clip-rule="evenodd" d="M7.803 4.717l.29.283H13a1 1 0 0 1 1 1v2c.35 0 .687.06 1 .17V6a2 2 0 0 0-2-2H8.5L6.736 2.283A1 1 0 0 0 6.038 2H2.75C1.784 2 1 2.836 1 3.867v8.266C1 13.164 1.784 14 2.75 14H8v-1H2.75c-.354 0-.75-.326-.75-.867V3.867c0-.54.396-.867.75-.867h3.288l1.765 1.717z" fill="#6C707E"/></svg>
